icon/gr/credit-card.svg

<svg xmlns="http://www.w3.org/2000/svg" viewBox="0 0 24 24" height="1em" width="1em">
  <path fill="none" stroke="#000" stroke-width="2" d="M1,5.00087166 C1,4.4481055 1.43945834,4 2.00246167,4 L21.9975383,4 C22.5511826,4 23,4.44463086 23,5.00087166 L23,18.9991283 C23,19.5518945 22.5605417,20 21.9975383,20 L2.00246167,20 C1.44881738,20 1,19.5553691 1,18.9991283 L1,5.00087166 Z M1,8 L23,8 L23,10 L1,10 L1,8 Z M5,15 L7,15 L7,15.5 L5,15.5 L5,15 Z M10,15 L16,15 L16,15.5 L10,15.5 L10,15 Z"/>
</svg>

<svg xmlns="http://www.w3.org/2000/svg" width="24" height="24"><path fill="none" stroke="#000" stroke-width="2" d="M1 5c0-.552.44-1 1.002-1h19.996A1 1 0 0 1 23 5v14c0 .552-.44 1-1.002 1H2.002A1 1 0 0 1 1 19V5Zm0 3h22v2H1V8Zm4 7h2v.5H5V15Zm5 0h6v.5h-6V15Z"/></svg>
